X: 47
T: Weeping Willow
C: Scott Joplin
%%abc-version 2.0
%%abcx-abcm2ps-target-version 5.9.1 (29 Sep 2008)
%%abc-creator hum2abc beta
%%abcx-conversion-date 2021/07/20 09:00:58
%%abc-copyright 2021 Craig Stuart Sapp
%%abc-edited-by Craig Stuart Sapp
%%abc-edited-by Craig Stuart Sapp
%%abcx-initial-encoding-date 2005/01/20/
%%humdrum-veritas 1357306946
%%humdrum-veritas-data 2308587595
%%removed 0's from note length
%%linebreak <none>
%%barnumbers 0
L: 1/8
M: 2/4
N: Derived from weepingwillow.krn
Q: "Not fast." 1/4=88
%%staves {1 2}
V: 1 clef=treble
V: 2 clef=bass
K: G
[V:1] d/^c/d/e/ fg | 
[V:2] D/^C/D/E/ FG | 
[V:1] dd- d/e/c/A/ | 
[V:2] DD- D/E/C/A,/ | 
[V:1] G/F/G/A/ Bc | 
[V:2] G,/F,/G,/A,/ B,C | 
[V:1] DD- D/G/A/B/ ]|:  
[V:2] D,D,- D,/ z/ z ]|:  
[V:1] [d2B2G2][g2B2G2] | 
[V:2] G,,[B,G,D,] D,,[B,G,D,] | 
[V:1] [B/G/]^A/[B/G/][d/B/G/=F/]- [d/B/G/F/]de/ & x2x/ [B3/G3/F3/] | 
[V:2] G,,[B,G,D,] B,,[B,G,D,] | 
[V:1] d/cG/- [G/E/]AG/ & [GE]>E- x/ _E3/ | 
[V:2] C,2C,2 & C,[CG,E,] C,[CG,_E,] | 
[V:1] [B/D/]G/E/D/- D/G/A/B/ | 
[V:2] G,,[B,G,D,] [B,G,D,] z | 
[V:1] [d2B2G2][g2B2G2] | 
[V:2] G,,[B,G,D,] E,,[B,G,E,] | 
[V:1] [f/d/]^e/[f/d/][a/f/d/]- [a/f/d/]d/f/a/ | 
[V:2] A,,[DA,F,] F,,[DA,F,] | 
[V:1] b/g/e/c/- c/A/B/c/ & ^c3G | 
[V:2] E,,[^CA,G,] A,,[CA,G,] | 
[V:1] [d2F2]-[dF]G/A/ | 
[V:2] [DA,D,][A,A,,][D,D,,] z | 
[V:1] [d2B2G2][g2B2G2] | 
[V:2] G,,[B,G,D,] D,,[B,G,D,] | 
[V:1] [B/G/]^A/[B/G/][d/B/G/=F/]- [d/B/G/F/]de/ & x2x/ [B3/G3/F3/] | 
[V:2] G,,[B,G,D,] B,,[B,D,] | 
[V:1] d/cG/- [G/E/]AG/ & [GE]>E- x/ _E3/ | 
[V:2] C,[CG,E,] C,[CG,E,] | 
[V:1] [B/D/]G/E/D/- D/B/^A/B/ | 
[V:2] G,,[B,G,D,][B,G,D,] z | 
[V:1] [^d2B2][f3/d3/B3/]a/ | 
[V:2] F,[B,A,] B,,[B,A,] | 
[V:1] a/g/f/g/- g/g/f/e/ & [eB]>^A-A2 | 
[V:2] E,[B,G,] ^C,[^A,G,E,] | 
[V:1] [e/B/]d/^c/d/- d/=c/A/F/ |[1 
[V:2] D,[B,G,] D,[CA,F,] | 
[V:1] G2-G/G/A/B/ :|][2 
[V:2] B,2-B,/ z/ z & G,D, E,D, :|]  
[V:1] G[d'/d/][d'/d/] [d'd][b^ed] ]|: 
[V:2] [B,G,] z [B,B,,][^G,^G,,] ]|:  
[V:1] [c'2f2d2]-[c'/f/d/][B/^G/][cA] | 
[V:2] [A,A,,][CF,D,] [F,F,,][CF,D,] | 
[V:1] [^G/^E/][AF][B/^G/] [cA][ec] | 
[V:2] [D,D,,][CF,D,] [F,F,,][CF,D,] | 
[V:1] [^c/^A/][dB][b/g/d/]- [b/g/d/][^a/g/^c/][b/g/d/][g/d/B/]- | 
[V:2] [G,G,,][B,G,D,] [D,D,,][B,G,D,] | 
[V:1] [g/d/B/]^f/[gdB] f/[gdB]G/- | 
[V:2] [G,G,,][=F,=F,,] [E,E,,][D,D,,] | 
[V:1] G/G/c/e/ [gcG][a/c/A/][g/B/G/]- | 
[V:2] [C,C,,][ECG,] [E,E,,][_E,_E,,] | 
[V:1] x2e/d/e/d/ & [g/B/G/]B/d/e/ [B=F][GF] | 
[V:2] [D,D,,][DB,G,] [G,G,,][B,,B,,,] | 
[V:1] [c/G/E/]G/c/e/ [gcG][a/c/A/][b/g/d/B/]- | 
[V:2] [C,C,,][ECG,] [E,E,,][_E,_E,,] | 
[V:1] [b/g/d/B/]g/b [d'bgd][b^ed] | 
[V:2] [D,D,,][DB,G,] [G,G,,][^G,^G,,] | 
[V:1] [c'2f2d2]-[c'/f/d/][B/^G/][cA] | 
[V:2] [A,A,,][CF,D,] [F,F,,][CF,D,] | 
[V:1] [^G/^E/][AF][B/^G/] [cA][ec] | 
[V:2] [D,D,,][CF,D,] [F,F,,][CF,D,] | 
[V:1] [^c/^A/][dB][b/g/d/]- [b/g/d/][^a/g/^c/][b/g/d/][g/d/B/]- | 
[V:2] [G,G,,][B,G,D,] [D,D,,][B,G,D,] | 
[V:1] [g/d/B/]^f/[gdB] f/[gdB]G/- | 
[V:2] [G,G,,][=F,=F,,] [E,E,,][D,D,,] | 
[V:1] G/G/c/e/ [gcG][a/c/A/][g/B/G/]- | 
[V:2] [C,C,,][ECG,] [E,E,,][_E,_E,,] | 
[V:1] g/e/d/B/ E/B/G/E/ & [B2G2]D2 | 
[V:2] [D,D,,][G,G,,][B,2G,2E,2B,,2] | 
[V:1] [G2^C2][A/F/D/=C/][AFDC][G/D/B,/]- |[1 
[V:2] [A,A,,][E,E,,][D,2D,,2] | 
[V:1] [GDB,][d'/d/][d'/d/] [d'd][b^ed] :|][2 
[V:2] [G,G,,] z [B,B,,][^G,^G,,] :|]  
[V:1] [G2D2B,2]-[G/D/B,/]G/A/B/ | 
[V:2] [G,G,,]!accent!D, !accent!E,!accent!D, | 
[V:1] [d2B2G2][g2B2G2] | 
[V:2] G,,[B,G,D,] D,,[B,G,D,] | 
[V:1] [B/G/]^A/[B/G/][d/B/G/=F/]- [d/B/G/F/]de/ & x2x/ [B3/G3/F3/] | 
[V:2] G,,[B,G,D,] B,,[B,G,D,] | 
[V:1] d/cG/- G/AG/ & [GE]>E- E/_E3/ | 
[V:2] C,[CG,E,] C,[CG,_E,] | 
[V:1] [B/D/]G/E/D/- D/G/A/B/ | 
[V:2] G,,[B,G,D,][B,G,D,] z | 
[V:1] [d2B2G2][g2B2G2] | 
[V:2] G,,[B,G,D,] E,,[B,G,E,] | 
[V:1] [f/d/]^e/[f/d/][a/f/d/]- [a/f/d/]d/f/a/ | 
[V:2] A,,[DA,F,] F,,[DA,F,] | 
[V:1] b/g/e/c/- c/A/B/c/ & ^c3G | 
[V:2] E,,[^CA,G,] A,,[CA,] | 
[V:1] [d2F2]-[dF]G/B/ | 
[V:2] [DA,D,][A,A,,][D,D,,] z | 
[V:1] [d2B2G2][g2B2G2] | 
[V:2] G,,[B,G,D,] D,,[B,G,D,] | 
[V:1] [B/G/]^A/[B/G/][d/B/G/=F/]- [d/B/G/F/]de/ & x2x/ [B3/G3/F3/] | 
[V:2] G,,[B,G,D,] B,,[B,G,D,] | 
[V:1] d/cG/ [G/E/]AG/ & [GE]>E- x/ _E3/ | 
[V:2] C,[CG,E,] C,[CG,_E,] | 
[V:1] [B/D/]G/E/D/- D/B/^A/B/ | 
[V:2] G,,[B,G,D,][B,G,D,] z | 
[V:1] [^d2B2][f3/d3/B3/]a/ | 
[V:2] F,[B,A,] B,,[B,A,] | 
[V:1] a/g/f/g/- g/g/f/e/ & [eB]>^A-A2 | 
[V:2] C,[B,G,] ^C,[^A,G,E,] | 
[V:1] [e/B/]d/^c/d/- d/=c/A/F/ | 
[V:2] D,[B,G,] D,[CA,F,] | 
[V:1] G z [gdBG] z ||  
[V:2] [B,G,] z [G,G,,] z ||  
[V:1]  [K:C] E/G/c/d/ e/ge/- & E2-E3/^G/- | 
[V:2]  [K:C] C,[CG,E,] G,,[CG,E,] | 
[V:1] [e/G/]^d/[e^G] [fG][e/G/][c/A/]- | 
[V:2] B,,[D^G,E,] E,,[DG,E,] | 
[V:1] [c/A/]B/[cA] [c/_B/E/][cBE][c/A/F/]- | 
[V:2] A,,[CA,E,] [G,G,,][C,C,,] | 
[V:1] [c2A2F2]-[c/A/F/]A/c/f/ | 
[V:2] [F,F,,][CA,] C,[CA,] | 
[V:1] [afc][afc] [afc][_ad^c] | 
[V:2] [F,F,,][FCA,] [F,F,,][^F,^F,,] | 
[V:1] [gec]>e c/d/e/c/ | 
[V:2] [G,G,,][ECG,] [A,A,,][ECA,] | 
[V:1] B/b/g/e/- e/g/^f/^d/ | 
[V:2] B,,[EB,G,] B,,[^DB,A,] | 
[V:1] e z[g2G2] | 
[V:2] x2[B,2G,2F,2] & [EB,G,E,] z D,G,, | 
[V:1] E/G/c/d/ e/ge/- & E2-E3/^G/- | 
[V:2] C,[CG,E,] G,,[CG,E,] | 
[V:1] [e/G/]^d/[e^G] [fG][e/G/][c/A/]- | 
[V:2] B,,[D^G,E,] E,,[DG,E,] | 
[V:1] [c/A/]B/[cA] [c/_B/E/][cBE][c/A/F/]- | 
[V:2] A,,[CA,E,] [G,G,,][C,C,,] | 
[V:1] [c2A2F2]-[c/A/F/]A/c/f/ | 
[V:2] [F,F,,][CA,] C,[CA,] | 
[V:1] [afc][afc] [afc][_a^dc] | 
[V:2] [F,F,,][FCA,] [F,F,,][^F,^F,,] | 
[V:1] [gec]>e c/d/e | 
[V:2] [G,G,,][ECG,] [A,A,,][ECA,] | 
[V:1] [c2^F2][d/B/=F/][dBF][c/G/E/]- |[1 
[V:2] [DD,][A,A,,][G,2G,,2] | 
[V:1] [cGE]!accent!G !accent!^F!accent!=F :|][2 
[V:2] [CC,]!accent!G,, !accent!A,,!accent!B,, :|]  
[V:1] [cGE]G/A/ B/c/d/e/ ]|: 
[V:2] [CC,] zz2 ]|:  
[V:1] [d2B2][g2B2]- | 
[V:2] [GG,][FF,][DD,][B,B,,] | 
[V:1] [g/B/]d/[b/B/]d/ f/a/g/f/ | 
[V:2] [G,G,,][^G,^G,,] [A,A,,][B,B,,] | 
[V:1] e/^d/e/g/-g2 | 
[V:2] [CC,][ECG,] E,[ECG,] | 
[V:1] c/^d/^f/a/ g/e/g/c'/ | 
[V:2] [^D2C2A,2^F,2][ECG,] z | 
[V:1] [c'fd][b/f/d/][b/f/d/]- [b/f/d/][^a/f/d/][bfd] | 
[V:2] [DD,][FB,G,] [G,G,,][FB,G,] | 
[V:1] [f2d2]-[f/d/]d/f/b/ | 
[V:2] [B,/B,,/][_B,/_B,,/][A,/A,,/][_A,/_A,,/] [G,G,,][F=B,G,] | 
[V:1] [bec][a/e/c/][a/e/c/]- [a/e/c/][^g/e/c/][aec] | 
[V:2] [CC,][ECG,] [G,G,,][ECG,] | 
[V:1] [e2c2]-[e/c/]G/c/e/ | 
[V:2] [C/C,/][B,/B,,/][A,/A,,/][_A,/_A,,/] [G,G,,] z | 
[V:1] [d2B2][g2B2]- | 
[V:2] [GG,][FF,][DD,][B,B,,] | 
[V:1] [g/B/]d/[b/B/]d/ f/a/g/f/ | 
[V:2] [G,G,,][^G,^G,,] [A,A,,][B,B,,] | 
[V:1] e/^d/e/[g/_B/]- g/e/g & x2B2 | 
[V:2] [B,B,,][ECG,] E,[EC_B,] | 
[V:1] [f2A2]-[f/A/]A/c/f/ | 
[V:2] F,[FCA,] C,[FCA,] | 
[V:1] [afc][afc] [afc][_a^dc] | 
[V:2] [F,F,,][FCA,] [F,F,,][^F,^F,,] | 
[V:1] [gec]>e c/d/e | 
[V:2] [G,G,,][ECG,] [A,A,,][ECA,] | 
[V:1] [c2^F2][d/B/=F/][dBF][c/G/E/]- |[1 
[V:2] [DD,][A,A,,][G,2G,,2] | 
[V:1] [cGE]G/A/ B/c/d/e/ :|][2 
[V:2] [CC,] zz2 :|]  
[V:1] [c2G2E2]!accent![c'gec] z |]  
[V:2] [CC,][G,G,,] !accent![C,C,,] z |]  



